static/images/mobile/copyright/wikipedia-wordmark-uz.svg

<?xml version="1.0" encoding="UTF-8"?>
<svg xmlns="http://www.w3.org/2000/svg" width="120" height="18" viewBox="0 0 120 18">
	<title>
		uz-wordmark
	</title>
	<g id="Page-1" fill="none" fill-rule="evenodd" stroke="none" stroke-width="1">
		<path id="uz-wordmark" fill="#000" fill-rule="nonzero" d="M17.0119592,1.59872116e-14 C17.0979263,0.0860011843 17.1409354,0.236473311 17.1409354,0.451416748 C17.1409354,0.657794973 17.0979263,0.799668688 17.0119592,0.877038075 C16.6766044,0.92004628 16.3756602,1.00173129 16.1091259,1.12209292 C15.8511576,1.23388806 15.6447959,1.34566742 15.4900402,1.45743101 C15.3438518,1.56062737 15.1933797,1.74549315 15.0386235,2.01202816 C14.8838372,2.26999521 14.7763571,2.46345995 14.7161831,2.59242054 C14.6645779,2.72141232 14.5656963,2.9664657 14.4195378,3.32758619 L8.95094749,16.7927002 C8.79616724,17.1968246 8.58550633,17.4031865 8.31896417,17.4117859 C8.0696021,17.4117859 7.8675396,17.205424 7.71277608,16.7927002 L2.50213804,3.27599571 C2.09801063,2.24420089 1.77986974,1.60361943 1.54771425,1.35425006 C1.32415424,1.09631364 0.851242104,0.937243105 0.128976187,0.877038075 C0.0429920625,0.791070276 -5.41788836e-13,0.644897446 -5.41788836e-13,0.438519038 C-5.41788836e-13,0.232174013 0.03439365,0.0860011843 0.10318095,1.59872116e-14 C1.67047891,0.0324990032 2.5743595,0.0496436466 2.81482534,0.0514339304 L2.85037384,0.051590475 C3.32328322,0.0516075343 4.38948527,0.0344107093 6.04898327,1.59872116e-14 C6.11776442,0.0860011843 6.15215804,0.236473311 6.15216422,0.451416748 C6.15215804,0.657794973 6.11776442,0.799668688 6.04898327,0.877038075 C5.16334166,0.971636755 4.63883887,1.15220323 4.4754738,1.41873806 C4.31209956,1.67670585 4.38948527,2.19691008 4.70763094,2.97935002 L8.91225463,13.7359631 L9.04123082,13.7359631 L13.2071616,3.14701861 C13.5424861,2.42476663 13.6198718,1.88306756 13.4393187,1.52191901 C13.2673373,1.16080165 12.7256378,0.945841517 11.8142188,0.877038075 C11.7454197,0.808267101 11.706727,0.666393386 11.6981403,0.451416748 C11.6981286,0.236473311 11.7368213,0.0860011843 11.8142188,1.59872116e-14 C13.3760825,0.0323865499 14.3172054,0.0495248148 14.63759,0.0514147946 L14.6903878,0.051590475 C14.8279476,0.0516075343 15.601804,0.0344107093 17.0119592,1.59872116e-14 Z M18.2359997,5.26920831 C18.9379997,5.26920831 20.9399997,5.21720831 20.9399997,5.21720831 L20.9659997,5.26920831 L20.9659997,5.84120831 C20.9659997,5.91920831 20.9139997,5.97120831 20.8099997,5.97120831 L20.2639997,6.02420831 C19.4579997,6.10120831 19.1719997,6.31020831 19.1719997,6.83120831 L19.1719997,15.4892083 C19.1719997,16.0612083 19.4319997,16.3992083 20.2639997,16.4772083 L20.8099997,16.5302083 C20.8879997,16.5302083 20.9659997,16.5812083 20.9659997,16.6852083 L20.9659997,17.2312083 L20.9399997,17.2842083 C20.9399997,17.2842083 19.1395534,17.235917 18.2748654,17.2315269 L18.1579997,17.2312083 C17.4299997,17.2312083 15.4019997,17.2842083 15.4019997,17.2842083 L15.3499997,17.2312083 L15.3499997,16.6852083 C15.3499997,16.5812083 15.4279997,16.5302083 15.5319997,16.5302083 L16.0519997,16.4772083 C16.9099997,16.3992083 17.1699997,15.9832083 17.1699997,15.4892083 L17.1699997,6.83120831 C17.1699997,6.26120831 16.8569997,6.10220831 16.0519997,6.02620831 L15.5319997,5.97220831 C15.4279997,5.97220831 15.3499997,5.94820831 15.3499997,5.86820831 L15.3499997,5.26920831 L15.3759997,5.21720831 C15.3759997,5.21720831 17.4299997,5.26920831 18.2359997,5.26920831 Z M39.9259997,5.26920831 C40.6279997,5.26920831 42.6299997,5.21720831 42.6299997,5.21720831 L42.6559997,5.26920831 L42.6559997,5.84120831 C42.6559997,5.91920831 42.6039997,5.97120831 42.4999997,5.97120831 L41.9539997,6.02420831 C41.1479997,6.10120831 40.8619997,6.31020831 40.8619997,6.83120831 L40.8619997,15.4892083 C40.8619997,16.0612083 41.1219997,16.3992083 41.9539997,16.4772083 L42.4999997,16.5302083 C42.5779997,16.5302083 42.6559997,16.5812083 42.6559997,16.6852083 L42.6559997,17.2312083 L42.6299997,17.2842083 C42.6299997,17.2842083 40.8295534,17.235917 39.9648654,17.2315269 L39.8479997,17.2312083 C39.1199997,17.2312083 37.0919997,17.2842083 37.0919997,17.2842083 L37.0399997,17.2312083 L37.0399997,16.6852083 C37.0399997,16.5812083 37.1179997,16.5302083 37.2219997,16.5302083 L37.7419997,16.4772083 C38.5999997,16.3992083 38.8599997,15.9832083 38.8599997,15.4892083 L38.8599997,6.83120831 C38.8599997,6.26120831 38.5479997,6.10220831 37.7419997,6.02620831 L37.2219997,5.97220831 C37.1179997,5.97220831 37.0399997,5.94820831 37.0399997,5.86820831 L37.0399997,5.26920831 L37.0659997,5.21720831 C37.0659997,5.21720831 39.1199997,5.26920831 39.9259997,5.26920831 Z M95.2081199,5.22777831 C95.2683999,5.29511831 95.2985499,5.39729831 95.2985499,5.53429831 C95.2985499,5.67130831 95.2683999,5.77347831 95.2081199,5.84080831 C94.6468599,5.84514831 94.2913299,5.87085831 94.1415399,5.91789831 C93.9917299,5.96497831 94.0391299,6.17459831 94.2837099,6.54673831 L94.2837099,6.54673831 L96.8198099,10.6708183 C96.9041199,10.8221483 96.9766299,10.9049583 97.0373399,10.9192883 C97.0980499,10.9336083 97.1715599,10.8631583 97.2578999,10.7079683 L97.2578999,10.7079683 L99.6492999,6.54673831 C99.8616399,6.17864831 99.8715199,5.97021831 99.6789399,5.92138831 C99.4863499,5.87258831 99.1616399,5.84574831 98.7047999,5.84080831 C98.6444999,5.77425831 98.6143599,5.67518831 98.6143699,5.54358831 C98.6143599,5.41200831 98.6444999,5.31293831 98.7047999,5.24635831 C99.1037699,5.25526831 99.4512699,5.26067831 99.7472699,5.26260831 C100.04326,5.26455831 100.30534,5.26531831 100.53352,5.26492831 C100.76754,5.26531831 101.02795,5.26455831 101.31475,5.26260831 C101.60152,5.26067831 101.89709,5.25526831 102.20147,5.24635831 C102.26175,5.31293831 102.29191,5.41200831 102.29191,5.54358831 C102.29191,5.67518831 102.26175,5.77425831 102.20147,5.84080831 C101.77095,5.85482831 101.43828,5.89879831 101.20346,5.97269831 C100.96863,6.04663831 100.71986,6.30610831 100.45715,6.75108831 L100.45715,6.75108831 L97.8909199,11.0423583 C97.6986599,11.3441283 97.5892999,11.5417283 97.5628499,11.6351883 C97.5363899,11.7286583 97.5285199,11.9416083 97.5392399,12.2740083 L97.5392399,12.2740083 L97.5392399,14.9806583 C97.5199699,15.7221883 97.6438999,16.1897183 97.9110099,16.3832183 C98.1781099,16.5767383 98.7039499,16.6727083 99.4885399,16.6711683 C99.5488099,16.7385083 99.5789599,16.8406783 99.5789699,16.9776883 C99.5789599,17.1146983 99.5488099,17.2168683 99.4885399,17.2842083 C99.0003699,17.2745383 98.5448599,17.2660083 98.1220199,17.2586683 C97.6991599,17.2513083 97.2235599,17.2474283 96.6952099,17.2470583 L96.3782982,17.2477013 C95.9645923,17.2491195 95.5862579,17.2527803 95.2432899,17.2586683 C94.8145699,17.2660083 94.3607399,17.2745383 93.8817999,17.2842083 C93.8214999,17.2168683 93.7913599,17.1146983 93.7913599,16.9776883 C93.7913599,16.8406783 93.8214999,16.7385083 93.8817999,16.6711683 C94.6663699,16.6727083 95.1922099,16.5767383 95.4593199,16.3832183 C95.7264199,16.1897183 95.8503499,15.7221883 95.8310899,14.9806583 L95.8310899,14.9806583 L95.8310899,12.4356283 C95.8354799,12.1173083 95.8091099,11.8924483 95.7519599,11.7610483 C95.6948099,11.6296583 95.5805199,11.4396283 95.4090799,11.1909783 L95.4090799,11.1909783 L92.7704999,7.08547831 C92.3878399,6.48117831 92.0775199,6.12187831 91.8395599,6.00753831 C91.6015899,5.89322831 91.2842399,5.83764831 90.8875199,5.84080831 C90.8263899,5.77347831 90.7928999,5.67130831 90.7870399,5.53429831 C90.7811799,5.39729831 90.8079699,5.29511831 90.8674199,5.22777831 C91.1675999,5.23745831 91.4866199,5.24597831 91.8244899,5.25331831 C92.1623399,5.26067831 92.5265799,5.26455831 92.9171999,5.26492831 C93.3140899,5.26455831 93.6959099,5.26067831 94.0626599,5.25331831 C94.4293999,5.24597831 94.8112299,5.23745831 95.2081199,5.22777831 Z M59.2992499,5.26920831 L63.1212499,5.26920831 C63.9012499,5.26920831 65.7482499,5.21720831 65.7482499,5.21720831 L65.8022499,5.26920831 C65.8262499,6.38720831 66.0082499,7.40320831 66.1922499,8.39020831 L65.5442499,8.49420831 C65.2592499,7.53120831 64.7652499,6.15420831 63.1012499,6.15420831 L61.0212499,6.15420831 C60.5272499,6.15420831 60.2672499,6.33620831 60.2672499,6.77720831 L60.2672499,10.5482083 L62.2162499,10.5482083 C62.9452499,10.5482083 63.1262499,10.2362083 63.2312499,9.71620831 L63.3862499,9.17020831 C63.3862499,9.09220831 63.4392499,9.03920831 63.5422499,9.03920831 L63.9822499,9.03920831 C64.0362499,9.03920831 64.0362499,9.06620831 64.0362499,9.11720831 C63.9822499,9.68820831 63.8802499,10.4182083 63.8802499,11.0422083 C63.8802499,11.6912083 63.9842499,12.2382083 64.0362499,12.8362083 L63.9822499,12.8892083 L63.5422499,12.8892083 C63.4132499,12.8892083 63.3582499,12.8362083 63.3582499,12.7582083 L63.2282499,12.1872083 C63.1242499,11.6662083 62.8902499,11.3802083 62.2112499,11.3802083 L60.2632499,11.3802083 L60.2632499,15.3592083 C60.2632499,15.8512083 60.5462499,16.3452083 61.0172499,16.3452083 L63.4872499,16.3452083 C64.8132499,16.3452083 65.5432499,15.5132083 65.8532499,14.1592083 L66.5012499,14.2372083 L65.9802499,17.2262083 L65.9282499,17.2782083 C65.9282499,17.2782083 64.3942499,17.2262083 63.6142499,17.2262083 L59.0652499,17.2312083 C58.2852499,17.2312083 56.4922499,17.2842083 56.4922499,17.2842083 L56.4652499,17.2312083 L56.4652499,16.6592083 C56.4652499,16.6082083 56.4922499,16.5302083 56.6212499,16.5302083 L57.2212499,16.4772083 C58.0282499,16.3992083 58.2622499,15.8792083 58.2622499,15.3602083 L58.2622499,6.78020831 C58.2622499,6.18020831 57.9502499,6.07720831 57.2212499,6.02620831 L56.6212499,5.97220831 C56.4912499,5.95220831 56.4695832,5.91206942 56.4659721,5.88362035 L56.4652499,5.26920831 L56.4922499,5.21720831 C56.4922499,5.21720831 58.5192499,5.26920831 59.2992499,5.26920831 Z M111.02775,0.121208308 C111.38975,0.121208308 111.52075,0.382208308 111.72775,0.902208308 L117.05775,14.9942083 C117.42275,16.0092083 117.94375,16.3982083 118.98375,16.5022083 L119.26875,16.5272083 C119.39975,16.5272083 119.52975,16.6042083 119.52975,16.7362083 L119.52975,17.2282083 L119.45175,17.2812083 C119.45175,17.2812083 117.620052,17.2327168 116.572493,17.2285002 L116.43475,17.2282083 C115.52475,17.2282083 112.97575,17.2812083 112.97575,17.2812083 L112.95175,17.2282083 L112.95175,16.7362083 C112.95175,16.6042083 113.00375,16.5272083 113.13675,16.5272083 L113.86475,16.4742083 C114.85175,16.3972083 115.21775,16.0832083 114.95675,15.3572083 L113.37075,10.9612083 L107.96075,10.9612083 C107.33675,10.9612083 107.18075,11.0652083 107.05175,11.4012083 L105.54275,15.1722083 C105.28275,15.8262083 105.62075,16.3992083 106.58275,16.4772083 L107.33675,16.5302083 C107.44075,16.5302083 107.54475,16.6082083 107.54475,16.7372083 L107.54475,17.2312083 L107.49275,17.2842083 C107.49275,17.2842083 104.880935,17.2353635 104.119915,17.2314559 L104.03475,17.2312083 C103.35775,17.2312083 101.69375,17.2842083 101.69375,17.2842083 L101.64075,17.2312083 L101.64075,16.7372083 C101.64075,16.6082083 101.71875,16.5302083 101.84975,16.5302083 C102.99475,16.4522083 103.64275,16.2432083 104.37075,14.5792083 L110.14175,1.05820831 C110.42675,0.382208308 110.63575,0.121208308 111.02775,0.121208308 Z M86.0472499,5.26920831 C86.7482499,5.26920831 88.7522499,5.21720831 88.7522499,5.21720831 L88.7762499,5.26920831 L88.7762499,5.84120831 C88.7762499,5.91920831 88.7222499,5.97120831 88.6202499,5.97120831 L88.0742499,6.02420831 C87.2672499,6.10120831 86.9822499,6.31020831 86.9822499,6.83120831 L86.9852499,15.4892083 C86.9852499,16.0612083 87.2452499,16.3992083 88.0772499,16.4772083 L88.6232499,16.5302083 C88.7012499,16.5302083 88.7792499,16.5812083 88.7792499,16.6852083 L88.7792499,17.2312083 L88.7532499,17.2842083 C88.7532499,17.2842083 86.9528036,17.235917 86.0889853,17.2315269 L85.9722499,17.2312083 C85.2432499,17.2312083 83.2162499,17.2842083 83.2162499,17.2842083 L83.1632499,17.2312083 L83.1632499,16.6852083 C83.1632499,16.5812083 83.2412499,16.5302083 83.3452499,16.5302083 L83.8662499,16.4772083 C84.7232499,16.3992083 84.9842499,15.9832083 84.9842499,15.4892083 L84.9842499,6.83120831 C84.9842499,6.26120831 84.6712499,6.10220831 83.8662499,6.02620831 L83.3452499,5.97220831 C83.2412499,5.97220831 83.1632499,5.94820831 83.1632499,5.86820831 L83.1632499,5.26920831 L83.1892499,5.21720831 C83.1892499,5.21720831 85.2432499,5.26920831 86.0472499,5.26920831 Z M25.9869997,5.26920831 C26.7159997,5.26920831 28.3529997,5.21720831 28.3529997,5.21720831 L28.3789997,5.26920831 L28.3789997,5.84120831 C28.3789997,5.91920831 28.3269997,5.94520831 28.2229997,5.97120831 L27.9369997,6.02420831 C27.1309997,6.17920831 26.8449997,6.31020831 26.8449997,6.83120831 L26.8449997,10.7582083 C27.7029997,10.7582083 28.1969997,10.3182083 29.3409997,9.09420831 C30.3809997,7.94820831 31.1869997,6.99020831 31.1869997,6.49320831 C31.1869997,6.28420831 30.9529997,6.05220831 30.4329997,5.97220831 C30.3289997,5.94820831 30.2769997,5.92020831 30.2769997,5.84220831 L30.2769997,5.24220831 L30.3029997,5.21820831 C30.3029997,5.21820831 32.4089997,5.27020831 33.1629997,5.27020831 C33.8389997,5.27020831 34.9829997,5.21820831 34.9829997,5.21820831 L35.0609997,5.24220831 L35.0609997,5.84220831 C35.0609997,5.92020831 34.9829997,5.97220831 34.8529997,5.97220831 C33.8389997,6.05020831 33.1369997,6.10220831 32.2009997,7.16820831 L29.9649997,9.74020831 C29.5229997,10.2102083 29.3669997,10.4942083 29.3669997,10.7032083 C29.3669997,10.8592083 29.4709997,10.9882083 29.6009997,11.1442083 L33.5269997,15.8762083 C33.8389997,16.2392083 34.4629997,16.3962083 34.9829997,16.4992083 L35.1129997,16.5242083 C35.1909997,16.5492083 35.2949997,16.6012083 35.2949997,16.6792083 L35.2949997,17.2252083 L35.2169997,17.2512083 C35.2169997,17.2512083 33.9963492,17.2281772 33.2458049,17.2254676 L33.1109997,17.2252083 C32.4609997,17.2252083 31.5249997,17.2512083 31.5249997,17.2512083 L31.4989997,17.2252083 L31.4989997,16.9132083 C31.4989997,16.5742083 31.4729997,16.2902083 31.1089997,15.8742083 L28.2229997,12.2852083 C27.8329997,11.7642083 27.4169997,11.6362083 26.8449997,11.6362083 L26.8449997,15.4892083 C26.8449997,16.0612083 27.1829997,16.3472083 27.9369997,16.4772083 L28.2229997,16.5302083 C28.3009997,16.5552083 28.3789997,16.5812083 28.3789997,16.6852083 L28.3789997,17.2312083 L28.3529997,17.2842083 C28.3529997,17.2842083 26.8828833,17.2366404 26.0649239,17.2316333 L25.9349997,17.2312083 C25.2069997,17.2312083 23.0749997,17.2842083 23.0749997,17.2842083 L23.0229997,17.2312083 L23.0229997,16.6852083 C23.0229997,16.5812083 23.1009997,16.5302083 23.2049997,16.5302083 L23.7249997,16.4772083 C24.5049997,16.3992083 24.8429997,15.9832083 24.8429997,15.4892083 L24.8429997,6.83120831 C24.8429997,6.26120831 24.5569997,6.10220831 23.7249997,6.02620831 L23.2049997,5.97220831 C23.1009997,5.97220831 23.0229997,5.94820831 23.0229997,5.86820831 L23.0229997,5.26920831 L23.0489997,5.21720831 C23.0489997,5.21720831 25.1809997,5.26920831 25.9869997,5.26920831 Z M71.1762499,5.27020831 C71.6682499,5.27020831 73.9322499,5.21820831 74.6082499,5.21820831 C78.9502499,5.21820831 81.0832499,7.92220831 81.0832499,11.3802083 C81.0832499,15.9312083 77.8582499,17.2812083 74.9742499,17.2812083 C73.0037236,17.2812083 72.0841779,17.2336404 71.3075247,17.2286333 L71.1792499,17.2282083 C70.3982499,17.2282083 68.4212499,17.2812083 68.4212499,17.2812083 L68.3962499,17.2282083 L68.3962499,16.6822083 C68.3932499,16.6082083 68.4462499,16.5302083 68.5492499,16.5302083 L69.1472499,16.4772083 C69.9282499,16.3992083 70.1882499,16.1652083 70.1882499,15.3602083 L70.1882499,6.78020831 C70.1882499,6.10220831 70.0042499,6.10220831 69.1472499,6.02620831 L68.5772499,5.97220831 C68.4732499,5.97220831 68.3932499,5.92020831 68.3932499,5.84220831 L68.3932499,5.27020831 L68.4182499,5.21820831 C68.4182499,5.21820831 70.7072499,5.27020831 71.1762499,5.27020831 Z M47.4679997,5.27020831 C48.1959997,5.27020831 49.2359997,5.21820831 50.1979997,5.21820831 C53.8879997,5.21820831 54.5639997,7.03720831 54.5639997,8.39120831 C54.5639997,9.95220831 53.8099997,12.3952083 50.1199997,12.3952083 C49.4699997,12.3952083 48.9499997,12.3422083 48.4809997,12.1352083 L48.4809997,15.6172083 C48.4809997,16.1882083 48.7929997,16.3202083 49.6259997,16.4492083 L50.1469997,16.5272083 C50.2509997,16.5522083 50.3299997,16.5802083 50.3299997,16.6822083 L50.3299997,17.2282083 L50.3059997,17.2812083 C50.3059997,17.2812083 48.4098819,17.232917 47.5364965,17.2285269 L47.4189997,17.2282083 C46.6909997,17.2282083 44.7409997,17.2812083 44.7409997,17.2812083 L44.7149997,17.2282083 L44.7149997,16.6822083 C44.7149997,16.5782083 44.7669997,16.5522083 44.8709997,16.5272083 L45.4169997,16.4492083 C46.2229997,16.3452083 46.4829997,16.1112083 46.4829997,15.6172083 L46.4799997,6.88220831 C46.4799997,6.07620831 46.1419997,6.05020831 44.9199997,5.97220831 C44.7639997,5.97220831 44.7379997,5.89520831 44.7379997,5.84220831 L44.7379997,5.24420831 L44.7899997,5.21820831 C45.1799997,5.21820831 46.7139997,5.27020831 47.4679997,5.27020831 Z M73.8542499,5.97220831 C72.8402499,5.97220831 72.1902499,6.12820831 72.1902499,6.78020831 L72.1902499,15.3602083 C72.1902499,16.0862083 72.3712499,16.5302083 74.3482499,16.5302083 C77.2072499,16.5302083 78.8212499,15.4662083 78.8212499,11.8232083 C78.8212499,9.12020831 78.2222499,5.97220831 73.8542499,5.97220831 Z M50.0419997,5.97320831 C48.7929997,5.97320831 48.4809997,6.20720831 48.4809997,6.88320831 L48.4819997,11.4072083 C49.0019997,11.6162083 49.6519997,11.6412083 50.1719997,11.6412083 C51.7329997,11.6412083 52.4839997,10.7032083 52.4839997,8.70320831 C52.4839997,6.46720831 51.4699997,5.97320831 50.0419997,5.97320831 Z M110.43075,2.93020831 L110.37875,2.93020831 L107.77875,9.53420831 C107.67475,9.79620831 107.85575,9.87220831 108.42775,9.87220831 L112.95275,9.87220831 L112.95275,9.87120831 L110.43075,2.93020831 Z"/>
	</g>
</svg>

<svg xmlns="http://www.w3.org/2000/svg" width="120" height="18"><path fill="#000" fill-rule="nonzero" d="M17.012 0c.086.086.129.236.129.451 0 .207-.043.349-.129.426a3.16 3.16 0 0 0-.903.245 3.341 3.341 0 0 0-.619.335c-.146.104-.297.288-.451.555a7.095 7.095 0 0 0-.323.58c-.051.13-.15.374-.296.736L8.95 16.793c-.154.404-.364.61-.631.619-.25 0-.451-.207-.606-.62L2.503 3.277c-.405-1.032-.723-1.672-.955-1.922C1.324 1.096.85.937.129.877.043.791 0 .645 0 .439 0 .232.034.086.103 0 1.67.032 2.574.05 2.815.051h.035C3.323.052 4.39.035 6.05 0c.069.086.103.236.103.451 0 .207-.034.349-.103.426-.886.095-1.41.275-1.574.542-.163.258-.086.778.233 1.56l4.204 10.757h.13l4.165-10.589c.335-.722.413-1.264.232-1.625-.172-.361-.713-.576-1.625-.645-.069-.069-.107-.21-.116-.426 0-.215.039-.365.116-.451 1.562.032 2.503.05 2.824.051h.052c.138 0 .912-.017 2.322-.051zm1.224 5.27c.702 0 2.704-.053 2.704-.053l.026.052v.572c0 .078-.052.13-.156.13l-.546.053c-.806.077-1.092.286-1.092.807v8.658c0 .572.26.91 1.092.988l.546.053c.078 0 .156.051.156.155v.546l-.026.053s-1.8-.048-2.665-.052h-.117c-.728 0-2.756.052-2.756.052l-.052-.053v-.546c0-.104.078-.155.182-.155l.52-.053c.858-.078 1.118-.494 1.118-.988V6.831c0-.57-.313-.729-1.118-.805l-.52-.054c-.104 0-.182-.024-.182-.104V5.27l.026-.052s2.054.052 2.86.052zm21.69 0c.702 0 2.704-.053 2.704-.053l.026.052v.572c0 .078-.052.13-.156.13l-.546.053c-.806.077-1.092.286-1.092.807v8.658c0 .572.26.91 1.092.988l.546.053c.078 0 .156.051.156.155v.546l-.026.053s-1.8-.048-2.665-.052h-.117c-.728 0-2.756.052-2.756.052l-.052-.053v-.546c0-.104.078-.155.182-.155l.52-.053c.858-.078 1.118-.494 1.118-.988V6.831c0-.57-.312-.729-1.118-.805l-.52-.054c-.104 0-.182-.024-.182-.104V5.27l.026-.052s2.054.052 2.86.052zm55.282-.042c.06.067.09.17.09.306 0 .137-.03.24-.09.307-.561.004-.917.03-1.066.077-.15.047-.103.257.142.629l2.536 4.124c.084.151.157.234.217.248.061.015.135-.056.22-.211l2.392-4.161c.213-.368.223-.577.03-.626-.193-.048-.517-.075-.974-.08-.06-.067-.09-.166-.09-.297 0-.132.03-.231.09-.298a67.051 67.051 0 0 0 1.829.019c.234 0 .494 0 .78-.002.288-.002.583-.008.887-.017.06.067.09.166.09.298 0 .131-.03.23-.09.297-.43.014-.763.058-.998.132-.234.074-.483.333-.746.778l-2.566 4.291c-.192.302-.302.5-.328.593-.027.094-.034.307-.024.639v2.707c-.019.741.105 1.209.372 1.402.267.194.793.29 1.578.288.06.068.09.17.09.307 0 .137-.03.239-.09.306-.489-.01-.944-.018-1.367-.025a86.208 86.208 0 0 0-1.427-.012h-.317c-.413.002-.792.006-1.135.012l-1.361.025c-.06-.067-.09-.17-.09-.306 0-.137.03-.24.09-.307.784.002 1.31-.094 1.577-.288.267-.193.391-.66.372-1.402v-2.545c.004-.319-.022-.544-.079-.675a3.814 3.814 0 0 0-.343-.57L92.77 7.085c-.382-.604-.692-.963-.93-1.077-.238-.115-.556-.17-.952-.167-.062-.068-.095-.17-.101-.307-.006-.137.021-.239.08-.306.3.01.62.018.957.025a52.653 52.653 0 0 0 2.239 0l1.145-.025zM59.3 5.269h3.822c.78 0 2.627-.052 2.627-.052l.054.052c.024 1.118.206 2.134.39 3.121l-.648.104c-.285-.963-.779-2.34-2.443-2.34h-2.08c-.494 0-.754.182-.754.623v3.771h1.95c.728 0 .91-.312 1.014-.832l.155-.546c0-.078.053-.13.156-.13h.44c.054 0 .054.026.054.077-.054.571-.156 1.301-.156 1.925 0 .65.104 1.196.156 1.794l-.054.053h-.44c-.129 0-.184-.053-.184-.13l-.13-.572c-.104-.52-.338-.807-1.017-.807h-1.948v3.98c0 .491.283.985.754.985h2.47c1.326 0 2.056-.832 2.366-2.186l.648.078-.52 2.99-.053.051s-1.534-.052-2.314-.052l-4.549.005c-.78 0-2.573.053-2.573.053l-.027-.053v-.572c0-.05.027-.129.156-.129l.6-.053c.807-.078 1.041-.598 1.041-1.117V6.78c0-.6-.312-.703-1.04-.754l-.6-.054c-.13-.02-.152-.06-.156-.088v-.615l.026-.052s2.027.052 2.807.052zM111.028.121c.362 0 .493.261.7.781l5.33 14.092c.365 1.015.886 1.404 1.926 1.508l.285.025c.13 0 .26.077.26.21v.491l-.077.053s-1.832-.048-2.88-.052h-.137a275 275 0 0 0-3.46.052l-.023-.053v-.492c0-.132.052-.209.185-.209l.728-.053c.987-.077 1.353-.39 1.092-1.117l-1.586-4.396h-5.41c-.624 0-.78.104-.91.44l-1.508 3.771c-.26.654.078 1.227 1.04 1.305l.754.053c.104 0 .208.078.208.207v.494l-.052.053s-2.612-.049-3.373-.053h-.085c-.677 0-2.341.053-2.341.053l-.053-.053v-.494c0-.129.078-.207.209-.207 1.145-.078 1.793-.287 2.52-1.95l5.772-13.522c.285-.676.494-.937.886-.937zM86.048 5.27c.7 0 2.704-.052 2.704-.052l.024.052v.572c0 .078-.054.13-.156.13l-.546.053c-.807.077-1.092.286-1.092.807l.003 8.658c0 .572.26.91 1.092.988l.546.053c.078 0 .156.051.156.155v.546l-.026.053s-1.8-.048-2.664-.052h-.117c-.729 0-2.756.052-2.756.052l-.053-.053v-.546c0-.104.078-.155.182-.155l.521-.053c.857-.078 1.118-.494 1.118-.988V6.831c0-.57-.313-.729-1.118-.805l-.52-.054c-.105 0-.183-.024-.183-.104V5.27l.026-.052s2.054.052 2.858.052zm-60.061 0c.729 0 2.366-.052 2.366-.052l.026.052v.572c0 .078-.052.104-.156.13l-.286.053c-.806.155-1.092.286-1.092.807v3.927c.858 0 1.352-.44 2.496-1.664 1.04-1.146 1.846-2.104 1.846-2.6 0-.21-.234-.442-.754-.522-.104-.024-.156-.052-.156-.13v-.6l.026-.024s2.106.052 2.86.052c.676 0 1.82-.052 1.82-.052l.078.024v.6c0 .078-.078.13-.208.13-1.014.078-1.716.13-2.652 1.196L29.965 9.74c-.442.47-.598.754-.598.963 0 .156.104.285.234.441l3.926 4.732c.312.363.936.52 1.456.623l.13.025c.078.025.182.077.182.155v.546l-.078.026s-1.22-.023-1.971-.026h-.135c-.65 0-1.586.026-1.586.026l-.026-.026v-.312c0-.339-.026-.623-.39-1.039l-2.886-3.589c-.39-.52-.806-.649-1.378-.649v3.853c0 .572.338.858 1.092.988l.286.053c.078.025.156.051.156.155v.546l-.026.053s-1.47-.047-2.288-.052h-.13c-.728 0-2.86.052-2.86.052l-.052-.053v-.546c0-.104.078-.155.182-.155l.52-.053c.78-.078 1.118-.494 1.118-.988V6.831c0-.57-.286-.729-1.118-.805l-.52-.054c-.104 0-.182-.024-.182-.104V5.27l.026-.052s2.132.052 2.938.052zm45.19.001c.491 0 2.755-.052 3.431-.052 4.342 0 6.475 2.704 6.475 6.162 0 4.551-3.225 5.901-6.109 5.901-1.97 0-2.89-.047-3.666-.052h-.129c-.78 0-2.758.052-2.758.052l-.025-.053v-.546a.145.145 0 0 1 .153-.152l.598-.053c.781-.078 1.041-.312 1.041-1.117V6.78c0-.678-.184-.678-1.04-.754l-.57-.054c-.105 0-.185-.052-.185-.13V5.27l.025-.052s2.29.052 2.758.052zm-23.709 0c.728 0 1.768-.052 2.73-.052 3.69 0 4.366 1.82 4.366 3.173 0 1.561-.754 4.004-4.444 4.004-.65 0-1.17-.053-1.639-.26v3.482c0 .571.312.703 1.145.832l.521.078c.104.025.183.053.183.155v.546l-.024.053s-1.896-.048-2.77-.052h-.117c-.728 0-2.678.052-2.678.052l-.026-.053v-.546c0-.104.052-.13.156-.155l.546-.078c.806-.104 1.066-.338 1.066-.832l-.003-8.735c0-.806-.338-.832-1.56-.91-.156 0-.182-.077-.182-.13v-.598l.052-.026c.39 0 1.924.052 2.678.052zm26.386.702c-1.014 0-1.664.156-1.664.808v8.58c0 .726.181 1.17 2.158 1.17 2.86 0 4.473-1.064 4.473-4.707 0-2.703-.599-5.85-4.967-5.85zm-23.812.001c-1.249 0-1.561.234-1.561.91l.001 4.524c.52.21 1.17.234 1.69.234 1.561 0 2.312-.938 2.312-2.938 0-2.236-1.014-2.73-2.442-2.73zm60.389-3.043h-.052l-2.6 6.604c-.104.262.077.338.649.338h4.525L110.43 2.93z"/></svg>
